assets/svg/10x10/smile.svg

<svg xmlns="http://www.w3.org/2000/svg" viewBox="0 -0.5 10 10" shape-rendering="crispEdges"><path stroke="#000" d="M3 0h4M2 1h1m4 0h1M1 2h1m6 0h1M0 3h1m2 0h1m2 0h1m2 0h1M0 4h1m8 0h1M0 5h1m1 0h1m4 0h1m1 0h1M0 6h1m2 0h4m2 0h1M1 7h1m6 0h1M2 8h1m4 0h1M3 9h4"/></svg>

<svg xmlns="http://www.w3.org/2000/svg" viewBox="0 -0.5 10 10" shape-rendering="crispEdges">
<metadata>Made with Pixels to Svg https://codepen.io/shshaw/pen/XbxvNj</metadata>
<path stroke="#ffffff" d="M0 0h3M7 0h3M0 1h2M3 1h4M8 1h2M0 2h1M2 2h6M9 2h1M1 3h2M4 3h2M7 3h2M1 4h8M1 5h1M3 5h4M8 5h1M1 6h2M7 6h2M0 7h1M2 7h6M9 7h1M0 8h2M3 8h4M8 8h2M0 9h3M7 9h3" />
<path stroke="#000000" d="M3 0h4M2 1h1M7 1h1M1 2h1M8 2h1M0 3h1M3 3h1M6 3h1M9 3h1M0 4h1M9 4h1M0 5h1M2 5h1M7 5h1M9 5h1M0 6h1M3 6h4M9 6h1M1 7h1M8 7h1M2 8h1M7 8h1M3 9h4" />
</svg>
